build/images/medal.svg

<?xml version="1.0" encoding="UTF-8"?>
<svg width="33px" height="32px" viewBox="0 0 33 32" version="1.1" xmlns="http://www.w3.org/2000/svg" xmlns:xlink="http://www.w3.org/1999/xlink">
    <!-- Generator: sketchtool 63.1 (101010) - https://sketch.com -->
    <title>A5B805B5-BB2C-42CA-AD8C-52814E686E21</title>
    <desc>Created with sketchtool.</desc>
    <g id="Page-1" stroke="none" stroke-width="1" fill="none" fill-rule="evenodd">
        <g id="Kupa-shop-main-1" transform="translate(-564.000000, -163.000000)" fill="#333333" fill-rule="nonzero">
            <g id="header" transform="translate(0.000000, 20.000000)">
                <g id="medal" transform="translate(564.587500, 143.000000)">
                    <path d="M19.6052968,13.0234375 L14.7937796,17.5632813 L12.4846059,15.1901041 C12.2286103,14.9268229 11.8070779,14.9208333 11.5437831,15.1765625 C11.2802276,15.4325521 11.2742318,15.8533854 11.5302274,16.1166667 L14.299776,18.9567708 C14.5570749,19.2153646 14.9728722,19.2242187 15.2408594,18.9765625 L20.5330851,13.9901041 C20.6616042,13.8690104 20.7366824,13.7018229 20.7416355,13.5255208 C20.7465885,13.3492187 20.6811559,13.178125 20.5596753,13.05 C20.3021156,12.7825521 19.8774549,12.7708333 19.6052968,13.0234375 L19.6052968,13.0234375 Z" id="Path"></path>
                    <path d="M16.0349149,6.03671873 C10.5359635,6.03671873 6.0646441,10.5033854 6.0646441,15.9966146 C6.0646441,21.4901041 10.5359635,25.9567708 16.0349149,25.9567708 C21.5341268,25.9567708 26.0054462,21.4901041 26.0054462,15.9966146 C26.0054462,10.5033854 21.5341268,6.03671873 16.0349149,6.03671873 Z M16.0349149,24.6234375 C11.2700608,24.6234375 7.39936632,20.75 7.39936632,15.9966146 C7.39936632,11.2432292 11.2700608,7.37005207 16.0349149,7.37005207 C20.8044613,7.37005207 24.670724,11.2322917 24.670724,15.9966146 C24.670724,20.7609375 20.8044613,24.6234375 16.0349149,24.6234375 Z" id="Shape"></path>
                    <path d="M29.7559635,12.3299479 L29.9762448,8.37656253 C29.9916254,8.11119793 29.8472044,7.8619792 29.6091962,7.7432292 L26.0854774,5.96328127 L24.3036754,2.4432292 C24.1824555,2.20755207 23.9345413,2.06406253 23.6696823,2.07656253 L19.705401,2.29010413 L16.4019635,0.109895867 C16.1793359,-0.0367187333 15.8907544,-0.0367187333 15.6678662,0.109895867 L12.3644287,2.29010413 L8.40718584,2.07005207 C8.14128421,2.05442707 7.89206648,2.19869793 7.77319278,2.43671873 L5.99113013,5.9567708 L2.46767195,7.73671873 C2.23148872,7.85755207 2.08811032,8.10520833 2.10062334,8.37005207 L2.32064402,12.3234375 L0.13842531,15.6234375 C-0.00834201389,15.8458333 -0.00834201389,16.1341146 0.13842531,16.3567708 L2.31412677,19.6632813 L2.09384549,23.6166667 C2.07846488,23.8820313 2.22262536,24.13125 2.4608941,24.25 L5.98461288,26.0299479 L7.76641493,29.55 C7.88737413,29.7859375 8.13528837,29.9291667 8.40040799,29.9166667 L12.3579115,29.6966146 L15.661349,31.8765625 C15.8826731,32.0278646 16.1741222,32.0278646 16.3954462,31.8765625 L19.6988837,29.6966146 L23.6563872,29.9166667 C23.9220282,29.9320313 24.1712459,29.7877604 24.2903803,29.55 L26.0721823,26.0299479 L29.5959011,24.25 C29.8318237,24.1289063 29.9754627,23.8815104 29.9629497,23.6166667 L29.7426684,19.6632813 L31.9248872,16.3632813 C32.0716545,16.1408854 32.0716545,15.8523437 31.9248872,15.6299479 L29.7559635,12.3299479 Z M28.5145676,19.1166667 C28.433233,19.2359375 28.3954332,19.3794271 28.4079462,19.5234375 L28.6146718,23.2632813 L25.2846441,24.9432292 C25.1576891,25.0067708 25.0547174,25.1098959 24.9911095,25.2367187 L23.309151,28.5632813 L19.5654115,28.3567708 C19.4220332,28.3515625 19.2804796,28.3885417 19.158217,28.4632813 L16.0349149,30.5234375 L12.9118733,28.4632813 C12.8034272,28.3901041 12.6756901,28.3505208 12.5448247,28.35 L12.5114567,28.35 L8.7674566,28.5567708 L7.08575872,25.2299479 C7.02215086,25.103125 6.91917918,25.0002604 6.79196347,24.9367187 L3.45515791,23.2632813 L3.6621441,19.5234375 C3.66735786,19.3802083 3.63007946,19.2388021 3.55526208,19.1166667 L1.49322049,15.9966146 L3.55526208,12.8765625 C3.63685738,12.7575521 3.67465712,12.6138021 3.6621441,12.4700521 L3.45515791,8.72994793 L6.78544622,7.05 C6.91240126,6.98645833 7.01537301,6.88359373 7.07898087,6.7567708 L8.76067874,3.42994793 L12.5046788,3.63671873 C12.6477965,3.64166667 12.78935,3.60468747 12.9118733,3.52994793 L16.0349149,1.47005207 L19.158217,3.52994793 C19.277612,3.61145833 19.4215118,3.64921873 19.5654115,3.63671873 L23.309151,3.42994793 L24.9911095,6.7567708 C25.0547174,6.88359373 25.1576891,6.98645833 25.2846441,7.05 L28.6146718,8.72994793 L28.4079462,12.4700521 C28.4027325,12.6130208 28.4400109,12.7544271 28.5145676,12.8765625 L30.5768698,15.9966146 L28.5145676,19.1166667 Z" id="Shape"></path>
                </g>
            </g>
        </g>
    </g>
</svg>

<svg width="33" height="32" xmlns="http://www.w3.org/2000/svg"><g id="Page-1" stroke="none" stroke-width="1" fill="none" fill-rule="evenodd"><g id="Kupa-shop-main-1" transform="translate(-564 -163)" fill="#333" fill-rule="nonzero"><g id="header" transform="translate(0 20)"><g id="medal" transform="translate(564.587 143)"><path d="M19.605 13.023l-4.811 4.54-2.31-2.373a.666.666 0 00-.954.927l2.77 2.84a.678.678 0 00.94.02l5.293-4.987a.664.664 0 00.027-.94.682.682 0 00-.955-.027z" id="Path"/><path d="M16.035 6.037c-5.499 0-9.97 4.466-9.97 9.96 0 5.493 4.471 9.96 9.97 9.96 5.5 0 9.97-4.467 9.97-9.96 0-5.494-4.47-9.96-9.97-9.96zm0 18.586c-4.765 0-8.636-3.873-8.636-8.626 0-4.754 3.871-8.627 8.636-8.627 4.77 0 8.636 3.862 8.636 8.627 0 4.764-3.867 8.626-8.636 8.626z" id="Shape"/><path d="M29.756 12.33l.22-3.953a.665.665 0 00-.367-.634l-3.524-1.78-1.781-3.52a.677.677 0 00-.634-.366l-3.965.213L16.402.11a.668.668 0 00-.734 0l-3.304 2.18-3.957-.22a.665.665 0 00-.634.367l-1.782 3.52-3.523 1.78a.675.675 0 00-.367.633l.22 3.953-2.183 3.3a.666.666 0 000 .734l2.176 3.306-.22 3.954a.665.665 0 00.367.633l3.524 1.78 1.781 3.52c.121.236.37.38.634.367l3.958-.22 3.303 2.18a.65.65 0 00.734 0l3.304-2.18 3.957.22a.666.666 0 00.634-.367l1.782-3.52 3.524-1.78a.676.676 0 00.367-.633l-.22-3.954 2.182-3.3a.666.666 0 000-.733l-2.169-3.3zm-1.241 6.787a.626.626 0 00-.107.406l.207 3.74-3.33 1.68a.658.658 0 00-.294.294l-1.682 3.326-3.744-.206a.73.73 0 00-.407.106l-3.123 2.06-3.123-2.06a.661.661 0 00-.367-.113h-.034l-3.744.207-1.681-3.327a.657.657 0 00-.294-.293l-3.337-1.674.207-3.74a.728.728 0 00-.107-.406l-2.062-3.12 2.062-3.12a.623.623 0 00.107-.407l-.207-3.74 3.33-1.68a.658.658 0 00.294-.293L8.761 3.43l3.744.207a.733.733 0 00.407-.107l3.123-2.06 3.123 2.06c.12.081.264.12.407.107l3.744-.207 1.682 3.327c.064.127.167.23.294.293l3.33 1.68-.207 3.74a.73.73 0 00.107.407l2.062 3.12-2.062 3.12z" id="Shape"/></g></g></g></g></svg>
